Numix/16/status/indicator-keyboard-Bn-1.svg

<?xml version="1.0" encoding="UTF-8" standalone="no"?>
<svg
   xmlns:dc="http://purl.org/dc/elements/1.1/"
   xmlns:cc="http://creativecommons.org/ns#"
   xmlns:rdf="http://www.w3.org/1999/02/22-rdf-syntax-ns#"
   xmlns:svg="http://www.w3.org/2000/svg"
   xmlns="http://www.w3.org/2000/svg"
   xmlns:sodipodi="http://sodipodi.sourceforge.net/DTD/sodipodi-0.dtd"
   xmlns:inkscape="http://www.inkscape.org/namespaces/inkscape"
   viewBox="0 0 16 16"
   id="svg2"
   version="1.1"
   inkscape:version="0.91 r13725"
   sodipodi:docname="indicator-keyboard-Bn-1.svg">
  <metadata
     id="metadata14">
    <rdf:RDF>
      <cc:Work
         rdf:about="">
        <dc:format>image/svg+xml</dc:format>
        <dc:type
           rdf:resource="http://purl.org/dc/dcmitype/StillImage" />
      </cc:Work>
    </rdf:RDF>
  </metadata>
  <defs
     id="defs12" />
  <sodipodi:namedview
     pagecolor="#ffffff"
     bordercolor="#666666"
     borderopacity="1"
     objecttolerance="10"
     gridtolerance="10"
     guidetolerance="10"
     inkscape:pageopacity="0"
     inkscape:pageshadow="2"
     inkscape:window-width="640"
     inkscape:window-height="480"
     id="namedview10"
     showgrid="false"
     inkscape:zoom="14.75"
     inkscape:cx="8"
     inkscape:cy="8"
     inkscape:window-x="65"
     inkscape:window-y="24"
     inkscape:window-maximized="0"
     inkscape:current-layer="svg2" />
  <path
     style="fill:#ececec;fill-opacity:1"
     d="M 1.5996094 0 C 0.71320937 2.9605947e-16 0 0.71320937 0 1.5996094 L 0 14.400391 C 2.9605947e-16 15.286791 0.71320937 16 1.5996094 16 L 14.400391 16 C 15.286791 16 16 15.286791 16 14.400391 L 16 1.5996094 C 16 0.71320937 15.286791 0 14.400391 0 L 1.5996094 0 z M 3.5332031 4.8046875 C 3.8692031 4.8046875 4.1863281 4.8327187 4.4863281 4.8867188 C 4.7923281 4.9407187 5.0591094 5.03025 5.2871094 5.15625 C 5.5151094 5.28225 5.696125 5.4501562 5.828125 5.6601562 C 5.966125 5.8641563 6.0351563 6.1197812 6.0351562 6.4257812 C 6.0351562 6.7617812 5.9474375 7.0490625 5.7734375 7.2890625 C 5.6054375 7.5230625 5.3778438 7.6853906 5.0898438 7.7753906 C 5.2698437 7.8173906 5.4359375 7.8770781 5.5859375 7.9550781 C 5.7359375 8.0330781 5.8664687 8.1357187 5.9804688 8.2617188 C 6.0944688 8.3817188 6.1821875 8.5309375 6.2421875 8.7109375 C 6.3081875 8.8849375 6.3417969 9.0957969 6.3417969 9.3417969 C 6.3417969 9.9297971 6.1066719 10.379406 5.6386719 10.691406 C 5.1706719 10.997406 4.4487031 11.150391 3.4707031 11.150391 C 3.3687031 11.150391 3.247375 11.144813 3.109375 11.132812 C 2.977375 11.126813 2.8393125 11.113703 2.6953125 11.095703 C 2.5573125 11.083703 2.4267813 11.068781 2.3007812 11.050781 C 2.1747813 11.026781 2.0665625 11.002516 1.9765625 10.978516 L 1.9765625 4.9765625 C 2.0845625 4.9465625 2.2039375 4.9222969 2.3359375 4.9042969 C 2.4679375 4.8802969 2.6022344 4.8616094 2.7402344 4.8496094 C 2.8842344 4.8316094 3.0222969 4.8204531 3.1542969 4.8144531 C 3.2922969 4.8084531 3.4192031 4.8046875 3.5332031 4.8046875 z M 3.5332031 5.3261719 C 3.3112031 5.3261719 3.1227969 5.3337031 2.9667969 5.3457031 C 2.8167969 5.3577031 2.6898906 5.372625 2.5878906 5.390625 L 2.5878906 7.5859375 L 3.7753906 7.5859375 C 3.9973906 7.5859375 4.20825 7.5710156 4.40625 7.5410156 C 4.60425 7.5050156 4.7759219 7.4453281 4.9199219 7.3613281 C 5.0699219 7.2713281 5.1855312 7.1537656 5.2695312 7.0097656 C 5.3535312 6.8597656 5.3964844 6.6713594 5.3964844 6.4433594 C 5.3964844 6.2393594 5.3517188 6.0676875 5.2617188 5.9296875 C 5.1717187 5.7856875 5.0410469 5.668125 4.8730469 5.578125 C 4.7110469 5.488125 4.5170625 5.426625 4.2890625 5.390625 C 4.0610625 5.348625 3.8092031 5.3261719 3.5332031 5.3261719 z M 9.4003906 6.3535156 C 9.7543906 6.3535156 10.04725 6.4038594 10.28125 6.5058594 C 10.52125 6.6078594 10.711609 6.7552656 10.849609 6.9472656 C 10.993609 7.1332656 11.094297 7.3570937 11.154297 7.6210938 C 11.214297 7.8850937 11.244141 8.1761406 11.244141 8.4941406 L 11.244141 11.095703 L 10.660156 11.095703 L 10.660156 8.6835938 C 10.660156 8.3535938 10.635891 8.0756562 10.587891 7.8476562 C 10.545891 7.6196563 10.471281 7.4330625 10.363281 7.2890625 C 10.261281 7.1450625 10.123219 7.0424219 9.9492188 6.9824219 C 9.7812187 6.9164219 9.5685469 6.8847656 9.3105469 6.8847656 C 9.0345469 6.8847656 8.7938438 6.8996875 8.5898438 6.9296875 C 8.3918438 6.9596875 8.263125 6.9857656 8.203125 7.0097656 L 8.203125 11.095703 L 7.6171875 11.095703 L 7.6171875 6.6054688 C 7.7911875 6.5574688 8.0263125 6.5033594 8.3203125 6.4433594 C 8.6143125 6.3833594 8.9743906 6.3535156 9.4003906 6.3535156 z M 2.5878906 8.1074219 L 2.5878906 10.564453 C 2.6778906 10.576453 2.8121875 10.591375 2.9921875 10.609375 C 3.1721875 10.621375 3.3550156 10.628906 3.5410156 10.628906 C 3.8170156 10.628906 4.08575 10.610219 4.34375 10.574219 C 4.60775 10.538219 4.8371562 10.472953 5.0351562 10.376953 C 5.2331562 10.280953 5.3936719 10.148469 5.5136719 9.9804688 C 5.6336719 9.8124687 5.6933594 9.5960312 5.6933594 9.3320312 C 5.6933594 9.0920313 5.6504062 8.8942813 5.5664062 8.7382812 C 5.4824063 8.5762813 5.3630312 8.449375 5.2070312 8.359375 C 5.0510313 8.263375 4.8588594 8.1981094 4.6308594 8.1621094 C 4.4088594 8.1261094 4.1607656 8.1074219 3.8847656 8.1074219 L 2.5878906 8.1074219 z M 13.755859 8.8417969 L 14.023438 8.8417969 L 14.023438 12.896484 L 13.644531 12.896484 L 13.644531 9.421875 C 13.601631 9.468675 13.544809 9.5157063 13.474609 9.5664062 C 13.408309 9.6171063 13.331894 9.66805 13.246094 9.71875 C 13.160294 9.76555 13.070163 9.812575 12.976562 9.859375 C 12.882962 9.902275 12.788913 9.9375437 12.695312 9.9648438 L 12.583984 9.671875 C 12.817984 9.5899751 13.027638 9.4880813 13.210938 9.3632812 C 13.394237 9.2345813 13.576459 9.0601969 13.755859 8.8417969 z "
     id="path4" />
</svg>

<svg xmlns="http://www.w3.org/2000/svg" viewBox="0 0 16 16">
 <path d="m 1.6 0 c -0.886 0 -1.6 0.713 -1.6 1.6 l 0 12.801 c 0 0.886 0.713 1.6 1.6 1.6 l 12.801 0 c 0.886 0 1.6 -0.713 1.6 -1.6 l 0 -12.801 c 0 -0.886 -0.713 -1.6 -1.6 -1.6 l -12.801 0 z m 1.934 4.805 c 0.336 0 0.653 0.028 0.953 0.082 c 0.306 0.054 0.573 0.144 0.801 0.27 c 0.228 0.126 0.409 0.294 0.541 0.504 c 0.138 0.204 0.207 0.46 0.207 0.766 c 0 0.336 -0.088 0.623 -0.262 0.863 c -0.168 0.234 -0.396 0.396 -0.684 0.486 c 0.18 0.042 0.346 0.102 0.496 0.18 c 0.15 0.078 0.281 0.181 0.395 0.307 c 0.114 0.12 0.202 0.269 0.262 0.449 c 0.066 0.174 0.1 0.385 0.1 0.631 c 0 0.588 -0.235 1.038 -0.703 1.35 c -0.468 0.306 -1.19 0.459 -2.168 0.459 c -0.102 0 -0.223 -0.006 -0.361 -0.018 c -0.132 -0.006 -0.27 -0.019 -0.414 -0.037 c -0.138 -0.012 -0.269 -0.027 -0.395 -0.045 c -0.126 -0.024 -0.234 -0.048 -0.324 -0.072 l 0 -6 c 0.108 -0.03 0.227 -0.054 0.359 -0.072 c 0.132 -0.024 0.266 -0.043 0.404 -0.055 c 0.144 -0.018 0.282 -0.029 0.414 -0.035 c 0.138 -0.006 0.265 -0.01 0.379 -0.01 z m 0 0.521 c -0.222 0 -0.41 0.008 -0.566 0.02 c -0.15 0.012 -0.277 0.027 -0.379 0.045 l 0 2.195 l 1.188 0 c 0.222 0 0.433 -0.015 0.631 -0.045 c 0.198 -0.036 0.37 -0.096 0.514 -0.18 c 0.15 -0.09 0.266 -0.208 0.35 -0.352 c 0.084 -0.15 0.127 -0.338 0.127 -0.566 c 0 -0.204 -0.045 -0.376 -0.135 -0.514 c -0.09 -0.144 -0.221 -0.262 -0.389 -0.352 c -0.162 -0.09 -0.356 -0.152 -0.584 -0.188 c -0.228 -0.042 -0.48 -0.064 -0.756 -0.064 z m 5.867 1.027 c 0.354 0 0.647 0.05 0.881 0.152 c 0.24 0.102 0.43 0.249 0.568 0.441 c 0.144 0.186 0.245 0.41 0.305 0.674 c 0.06 0.264 0.09 0.555 0.09 0.873 l 0 2.602 l -0.584 0 l 0 -2.412 c 0 -0.33 -0.024 -0.608 -0.072 -0.836 c -0.042 -0.228 -0.117 -0.415 -0.225 -0.559 c -0.102 -0.144 -0.24 -0.247 -0.414 -0.307 c -0.168 -0.066 -0.381 -0.098 -0.639 -0.098 c -0.276 0 -0.517 0.015 -0.721 0.045 c -0.198 0.03 -0.327 0.056 -0.387 0.08 l 0 4.086 l -0.586 0 l 0 -4.49 c 0.174 -0.048 0.409 -0.102 0.703 -0.162 c 0.294 -0.06 0.654 -0.09 1.08 -0.09 z m -6.813 1.754 l 0 2.457 c 0.09 0.012 0.224 0.027 0.404 0.045 c 0.18 0.012 0.363 0.02 0.549 0.02 c 0.276 0 0.545 -0.019 0.803 -0.055 c 0.264 -0.036 0.493 -0.101 0.691 -0.197 c 0.198 -0.096 0.359 -0.228 0.479 -0.396 c 0.12 -0.168 0.18 -0.384 0.18 -0.648 c 0 -0.24 -0.043 -0.438 -0.127 -0.594 c -0.084 -0.162 -0.203 -0.289 -0.359 -0.379 c -0.156 -0.096 -0.348 -0.161 -0.576 -0.197 c -0.222 -0.036 -0.47 -0.055 -0.746 -0.055 l -1.297 0 z m 11.168 0.734 l 0.268 0 l 0 4.055 l -0.379 0 l 0 -3.475 c -0.043 0.047 -0.1 0.094 -0.17 0.145 c -0.066 0.051 -0.143 0.102 -0.229 0.152 c -0.086 0.047 -0.176 0.094 -0.27 0.141 c -0.094 0.043 -0.188 0.078 -0.281 0.105 l -0.111 -0.293 c 0.234 -0.082 0.444 -0.184 0.627 -0.309 c 0.183 -0.129 0.366 -0.303 0.545 -0.521 z" style="fill:#ececec;fill-opacity:1"/>
</svg>
